X: 1
T: Lady of the Lake
O: New England early 1800s
R: reel
N: AKA "Gypsy Hornpipe (4)," "Miss Johnson's Hornpipe," "Old Towser," "Portsmouth Hornpipe"
S: Fiddle Hell Online 2021-10-29
Z: 2021 John Chambers <jc:trillian.mit.edu>
M: C|
L: 1/8
K: G
B,A, |\
"G"G,B,DG BAGB | "G7"dBGA BAGB | "C"c2cB AGFG | "D7"AGFE DCB,A, |
"G"G,B,DG BAGB | "G7"dBGA BAGB | "C"c2cB AGFE | "D7"DGGF "G"G2 :|
|: Bc |\
"G"dcBd g2gB | "Am"cBA2 a4 | "D"f3g f2ed | "A7"edd^c "D"d2B=c |
"G"dcBd gdgB | "Am"cBA2 a3e | "D7"fedB cAFD | "G" G2GF G2 :|


